!!!!SEGMENT: pl-kk--kk-i-2--012-005_anonim--missa-puer-natus-quattuor-paribus-agnus-dei.krn
!!!cenid: 16xx:1625
!!!COM: Anonim
!!!COM-rismID: pe30004985
!!!CDT:
!!!CNT:
!!!OPR: Missa Puer natus quattuor paribus
!!!OTL: Agnus Dei
!!!OMV: 005
!!!PDT:
!!!AGN: Sacred; Mass
!!!YEC: Copyright 2022 Narodowy Instytut Fryderyka Chopina (https://polishscores.org)
!!!YEM: License CC-BY-4.0 (https://creativecommons.org/licenses/by/4.0)
!!!SMS-siglum: PL-Kk
!!!SMS-shelfmark: Kk.I.2
!!!SMS-shelfwork: 012-005 M
!!!NIFC-rismSourceID: 300258016
!!!NIFC-rismChildID: 300258028
!!!NIFC-islandoraID: pl-kk:750
!!!URL-pdf-islandora: https://repozytorium.nifc.pl/islandora/object/pl-kk%3A750/datastream/PDF/view
!!!URL-scan: https://polish.musicsources.pl/pl/lokalizacje/galeria/rekopisy/5828 @EN{Scan on Polish Music Sources Website} @PL{Skany w portalu Dziedzictwo Muzyki Polskiej w otwartym dostępie}
!!!IIIF: https://repozytorium.nifc.pl/islandora/object/pl-kk%3A750/datastream/IIIF/view
!!!ONB-nifc: Części mszy: Kyrie, Gloria, Credo, Sanctus, Agnus Dei; skany: C: 0004; A: 0104; T: 0208; B: 0308;
!!!AIN: 1 alto 1 bass 2 tenor
!!!key: G:mix
**kern	**text	**dynam	**kern	**text	**dynam	**kern	**text	**dynam	**kern	**text	**dynam
*part4	*	*	*part3	*	*	*part2	*	*	*part1	*	*
*staff4	*	*	*staff3	*	*	*staff2	*	*	*staff1	*	*
*I"BASVS	*	*	*I"TENOR	*	*	*I"ALTVS	*	*	*I"DISCANTVS	*	*
*I'B	*	*	*I'T	*	*	*I'T	*	*	*I'A	*	*
*Ibass	*	*	*Itenor	*	*	*Itenor	*	*	*Ialto	*	*
*ICvox	*	*	*ICvox	*	*	*ICvox	*	*	*ICvox	*	*
*clefF4	*	*	*clefC4	*	*	*clefC4	*	*	*clefC3	*	*
*k[]	*	*	*k[]	*	*	*k[]	*	*	*k[]	*	*
*G:mix	*	*	*G:mix	*	*	*G:mix	*	*	*G:mix	*	*
*M3/1	*	*	*M3/1	*	*	*M3/1	*	*	*M3/1	*	*
*	*	*	*met(O|)	*	*	*met(O|)	*	*	*	*	*
=1-	=1-	=1-	=1-	=1-	=1-	=1-	=1-	=1-	=1-	=1-	=1-
*xywh-#308:7524,1396,6552,1117	*	*	*xywh-#208:7560,1566,6632,927	*	*	*xywh-#104:7435,454,6661,1020	*	*	*xywh-#4:7685,748,6361,878	*	*
*2\right	*2\right	*2\right	*2\right	*2\right	*2\right	*2\right	*2\right	*2\right	*2\right	*2\right	*2\right
!	!	!	!LO:TX:t=P:problem:metrum 0| i 3/1	!	!	!LO:TX:t=P:problem:metrum 0| i 3/1	!	!	!	!	!
!	!	!	!LO:TX:t=P:problem:cztery puerwsze nuty dopisane inną ręką	!	!	!	!	!	!	!	!
0G	A-	.	0d	.	.	0B	A-	.	0d	A-	.
!	!	!	!	!	!	!LO:TX:t=P:problem:kreska pseudotaktowa	!	!	!LO:TX:t=P:problem:kreska pseudotaktowa	!	!
1G	-gnus	.	1d	.	.	1G	-gnus	.	1B	-gnus	.
=2-	=2-	=2-	=2-	=2-	=2-	=2-	=2-	=2-	=2-	=2-	=2-
0G	De-	.	0d	.	.	0B	de-	.	0d	De-	.
!LO:TX:t=P:problem:kreska pseudotaktowa	!	!	!	!	!	!LO:TX:t=P:problem:kreska pseudotaktowa	!	!	!LO:TX:t=P:problem:kreska pseudotaktowa	!	!
1GG	-i	.	1d	.	.	1G	-i	.	1B	-i	.
=3-	=3-	=3-	=3-	=3-	=3-	=3-	=3-	=3-	=3-	=3-	=3-
*	*ij	*	*	*	*	*	*ij	*	*	*ij	*
0GG	A-	.	0d	A-	.	0B	A-	.	0g	A-	.
1GG	-gnus	.	1B	-gnus	.	1B	-gnus	.	1g	-gnus	.
=4-	=4-	=4-	=4-	=4-	=4-	=4-	=4-	=4-	=4-	=4-	=4-
0GG	De-	.	0d	De-	.	0B	de-	.	0g	de-	.
!	!	!	!LO:TX:t=P:problem:kreska pseudotaktowa	!	!	!LO:TX:t=P:problem:kreska pseudotaktowa	!	!	!LO:TX:t=P:problem:kreska pseudotaktowa	!	!
1GG	-i	.	1B	-i	.	1B	-i	.	1g	-i	.
*	*Xij	*	*	*	*	*	*Xij	*	*	*Xij	*
=5-	=5-	=5-	=5-	=5-	=5-	=5-	=5-	=5-	=5-	=5-	=5-
0G	qui	.	0G	qui	.	0d	qui	.	0d	qui	.
1F#Xi	tol-	.	1A	tol-	.	1d	tol-	.	1d	tol-	.
=6-	=6-	=6-	=6-	=6-	=6-	=6-	=6-	=6-	=6-	=6-	=6-
*	*	*	*	*	*	*	*	*	*col	*	*
0G	-lis	.	0B	-lis	.	0d	-lis	.	1d	-lis	.
!	!	!	!	!	!	!	!	!	!LO:TX:t=P:problem:kreska pseudotaktowa	!	!
.	.	.	.	.	.	.	.	.	0g	pec-	.
*	*	*	*	*	*	*	*	*	*Xcol	*	*
!LO:TX:t=P:problem:kreska pseudotaktowa	!	!	!LO:TX:t=P:problem:kreska pseudotaktowa	!	!	!LO:TX:t=P:problem:kreska pseudotaktowa	!	!	!	!	!
1C	pec-	.	1c	pec-	.	1e	pec-	.	.	.	.
*	*	*	*	*	*	*	*	*	*custos:g	*	*
=7-	=7-	=7-	=7-	=7-	=7-	=7-	=7-	=7-	=7-	=7-	=7-
!	!	!	!	!	!	!	!	!	!LO:LB:g=original	!	!
*	*	*	*	*	*	*	*	*	*xywh-#4:7668,1549,6372,889	*	*
1.GG	-ca-	.	1.B	-ca-	.	1.d	-ca-	.	1.g	-ca-	.
2GG/	-ta	.	2B\	-ta	.	2d\	-ta	.	2g\	-ta	.
!	!	!	!	!	!	!LO:TX:t=P:problem:kreska pseudotaktowa	!	!	!	!	!
1D	mun-	.	1A	mun-	.	1d	mun-	.	1f#X	mun-	.
=8-	=8-	=8-	=8-	=8-	=8-	=8-	=8-	=8-	=8-	=8-	=8-
!LO:TX:t=P:problem:kreska pseudotaktowa	!	!	!LO:TX:t=P:problem:kreska pseudotaktowa	!	!	!LO:TX:t=P:problem:kreska pseudotaktowa	!	!	!LO:TX:t=P:problem:kreska pseudotaktowa	!	!
0.GG	-di	.	0.B	-di	.	0.d	-di	.	0.g	-di	.
=9-	=9-	=9-	=9-	=9-	=9-	=9-	=9-	=9-	=9-	=9-	=9-
0G	Mi-	.	0G	Mi-	.	0d	Mi-	.	0d	Mi-	.
1Fny	-ſe-	.	1A	-ſe-	.	1d	-ſe-	.	1d	-ſe-	.
=10-	=10-	=10-	=10-	=10-	=10-	=10-	=10-	=10-	=10-	=10-	=10-
0G	-re-	.	0B	-re-	.	0d	-re-	.	0d	-re-	.
!	!	!	!	!	!	!LO:TX:t=P:problem:kreska pseudotaktowa	!	!	!	!	!
1C	-re	.	1c	-re	.	1e	-re	.	1e	-re	.
=11-	=11-	=11-	=11-	=11-	=11-	=11-	=11-	=11-	=11-	=11-	=11-
!	!	!	!	!	!	!LO:TX:t=P:problem:kreska pseudotaktowa	!	!	!	!	!
2GG/	no-	.	(0B	no-	.	0.d	no-	.	0g	no-	.
2AA/	.	.	.	.	.	.	.	.	.	.	.
2BB/	.	.	.	.	.	.	.	.	.	.	.
2C/	.	.	.	.	.	.	.	.	.	.	.
!LO:TX:t=P:problem:kreska pseudotaktowa	!	!	!LO:TX:t=P:problem:kreska pseudotaktowa	!	!	!	!	!	!LO:TX:t=P:problem:kreska pseudotaktowa	!	!
1D	.	.	1A)	.	.	.	.	.	1fny	.	.
=12-	=12-	=12-	=12-	=12-	=12-	=12-	=12-	=12-	=12-	=12-	=12-
1GG,	-bis	.	1B,	-bis	.	1d,	-bis	.	1g,	-bis	.
*	*	*	*	*ij	*	*	*ij	*	*	*ij	*
1G	Mi-	.	1G	Mi-	.	1d	Mi-	.	1d	Mi-	.
!LO:TX:t=P:problem:kreska pseudotaktowa	!	!	!	!	!	!	!	!	!	!	!
!	!	!	!	!	!	!LO:TX:t=P:problem:kreska pseudotaktowa	!	!	!	!	!
1F	-ſe-	.	1A	-ſe-	.	1d	-ſe-	.	1d	-ſe-	.
*custos:G	*	*	*	*	*	*custos:d	*	*	*	*	*
=13-	=13-	=13-	=13-	=13-	=13-	=13-	=13-	=13-	=13-	=13-	=13-
!LO:LB:g=original	!	!	!	!	!	!LO:LB:g=original	!	!	!	!	!
*xywh-#308:7517,2214,6463,1001	*	*	*	*	*	*xywh-#104:7487,1355,6535,886	*	*	*	*	*
0G	-re-	.	0B	-re-	.	0d	-re-	.	0d	-re-	.
!	!	!	!LO:TX:t=P:problem:kreska pseudotaktowa	!	!	!	!	!	!	!	!
1C	-re	.	1c	.	.	1e	.	.	1e	.	.
=14-	=14-	=14-	=14-	=14-	=14-	=14-	=14-	=14-	=14-	=14-	=14-
2GG/	no-	.	0B	-re	.	0d	-re	.	0g	-re	.
2AA/	.	.	.	.	.	.	.	.	.	.	.
2BB/	.	.	.	.	.	.	.	.	.	.	.
2C/	.	.	.	.	.	.	.	.	.	.	.
!LO:TX:t=P:problem:kreska pseudotaktowa	!	!	!	!	!	!LO:TX:t=P:problem:kreska pseudotaktowa	!	!	!	!	!
1D	.	.	1A	no-	.	1d	no-	.	1f	no-	.
=15-	=15-	=15-	=15-	=15-	=15-	=15-	=15-	=15-	=15-	=15-	=15-
*	*	*	*col	*	*	*lig	*	*	*	*	*
1BB	.	.	1B	.	.	1d	.	.	0g	.	.
!	!	!	!LO:TX:t=P:problem:kreska pseudotaktowa	!	!	!	!	!	!	!	!
1C	.	.	0A	.	.	1c	.	.	.	.	.
*	*	*	*Xcol	*	*	*Xlig	*	*	*	*	*
1D	.	.	.	.	.	1A	.	.	1f#Xi	.	.
=16-	=16-	=16-	=16-	=16-	=16-	=16-	=16-	=16-	=16-	=16-	=16-
!	!	!	!	!	!	!	!	!	!LO:TX:t=P:problem:kreska pseudotaktowa	!	!
!	!	!	!	!	!	!	!	!	!LO:TX:t=P:problem:wykreślony # pod nutą	!	!
1GG,	bis	.	1B	-bis	.	1B,	-bis	.	0.g	-bis	.
*	*	*	*	*Xij	*	*	*Xij	*	*	*Xij	*
1G	Mi-	.	1d	Mi-	.	1d	Mi-	.	.	.	.
!	!	!	!LO:TX:t=P:problem:kreska pseudotaktowa	!	!	!	!	!	!	!	!
!LO:TX:t=P:problem:kreska pseudotaktowa	!	!	!	!	!	!LO:TX:t=P:problem:kreska pseudotaktowa	!	!	!	!	!
1G	-ſe-	.	1B	-ſe-	.	1d	-ſe-	.	.	.	.
*	*	*	*custos:G	*	*	*	*	*	*	*	*
=17-	=17-	=17-	=17-	=17-	=17-	=17-	=17-	=17-	=17-	=17-	=17-
!	!	!	!LO:LB:g=original	!	!	!	!	!	!	!	!
*	*	*	*xywh-#208:7465,2302,6734,899	*	*	*	*	*	*	*	*
0G	-re-	.	0G	-re-	.	0.d	-re-	.	1r	.	.
.	.	.	.	.	.	.	.	.	1d	Mi-	.
!LO:SIC:v:s=1F#	!	!	!	!	!	!	!	!	!LO:TX:t=P:problem:kreska pseudotaktowa	!	!
1F	-re	.	1A	-re	.	.	.	.	1d	-ſe-	.
=18-	=18-	=18-	=18-	=18-	=18-	=18-	=18-	=18-	=18-	=18-	=18-
!	!	!	!	!	!	!LO:TX:t=P:problem:kreska pseudotaktowa	!	!	!	!	!
0G	no-	.	0B	no-	.	0.d	-re	.	1.d	-re-	.
.	.	.	.	.	.	.	.	.	4e\	.	.
.	.	.	.	.	.	.	.	.	4fny\	.	.
!LO:TX:t=P:problem:kreska pseudotaktowa	!	!	!LO:TX:t=P:problem:kreska pseudotaktowa	!	!	!	!	!	!LO:TX:t=P:problem:kreska pseudotaktowa	!	!
1GG	-bis	.	1B	-bis	.	.	.	.	1g	.	.
=19-	=19-	=19-	=19-	=19-	=19-	=19-	=19-	=19-	=19-	=19-	=19-
1.D	no-	.	0A	Mi-	.	1d	Mi-	.	2f\	.	.
.	.	.	.	.	.	.	.	.	2e\	.	.
.	.	.	.	.	.	1d	-ſe-	.	2f\	.	.
4C/	.	.	.	.	.	.	.	.	2g\	.	.
4BB/	.	.	.	.	.	.	.	.	.	.	.
1AA	.	.	1c	-ſe-	.	2e\	-re-	.	1a	.	.
!	!	!	!	!	!	!LO:TX:t=P:problem:kreska pseudotaktowa	!	!	!	!	!
.	.	.	.	.	.	2e\	-re	.	.	.	.
=20-	=20-	=20-	=20-	=20-	=20-	=20-	=20-	=20-	=20-	=20-	=20-
1BB	.	.	1B	-re-	.	2d\	Mi-	.	0g	-re	.
.	.	.	.	.	.	2d\	-ſe-	.	.	.	.
1C	.	.	1A	-re	.	1e	-re-	.	.	.	.
!	!	!	!	!	!	!	!	!	!LO:TX:t=P:problem:kreska pseudotaktowa	!	!
!LO:TX:t=P:problem:kreska pseudotaktowa	!	!	!LO:TX:t=P:problem:kreska pseudotaktowa	!	!	!LO:TX:t=P:problem:kreska pseudotaktowa	!	!	!	!	!
!	!	!	!	!	!	!	!	!	!LO:SIC:v:s=1f#	!	!
1D	.	.	1A	no-	.	1d	-re	.	1f	no-	.
*	*	*	*	*	*	*	*	*	*custos:g	*	*
=21-	=21-	=21-	=21-	=21-	=21-	=21-	=21-	=21-	=21-	=21-	=21-
*	*	*	*	*	*	*	*ij	*	*	*	*
!	!	!	!	!	!	!	!	!	!LO:LB:g=original	!	!
*	*	*	*	*	*	*	*	*	*xywh-#4:7585,2310,6512,861	*	*
1GG,	bis	.	1G,	-bis	.	2d\	Mi-	.	1g	.	.
.	.	.	.	.	.	2d\	-ſe-	.	.	.	.
*	*ij	*	*	*ij	*	*	*	*	*	*	*
2C/	Mi-	.	1G	Mi-	.	1e	-re-	.	1e	.	.
2C/	-ſe-	.	.	.	.	.	.	.	.	.	.
!	!	!	!LO:TX:t=P:problem:kreska pseudotaktowa	!	!	!LO:TX:t=P:problem:kreska pseudotaktowa	!	!	!	!	!
2BB/	-re-	.	1B	-ſe-	.	1d	-re	.	1g	.	.
*	*	*	*	*	*	*	*Xij	*	*	*	*
2BB/	-re	.	.	.	.	.	.	.	.	.	.
=22-	=22-	=22-	=22-	=22-	=22-	=22-	=22-	=22-	=22-	=22-	=22-
!LO:TX:t=P:problem:rytm: 1. poprawione na 0.	!	!	!	!	!	!	!	!	!	!	!
0.C	no-	.	1.G	-re-	.	0.cn	no-	.	0.e	.	.
.	.	.	4A/	-re	.	.	.	.	.	.	.
.	.	.	4B\	no-	.	.	.	.	.	.	.
.	.	.	1c	.	.	.	.	.	.	.	.
=23-	=23-	=23-	=23-	=23-	=23-	=23-	=23-	=23-	=23-	=23-	=23-
!	!	!	!LO:TX:t=P:problem:kreska pseudotaktowa	!	!	!	!	!	!	!	!
0GG;l	-bis	.	0.Bl	-bis	.	0.dl;<	-bis	.	0.gl	-bis	.
*	*Xij	*	*	*Xij	*	*	*	*	*	*	*
1ryy	.	.	.	.	.	.	.	.	.	.	.
=24||	=24||	=24||	=24-	=24-	=24||-	=24-	=24-	=24-	=24-	=24-	=24-
!LO:LB:g=original	!	!	!	!	!	!LO:LB:g=original	!	!	!	!	!
*M2/1	*	*	*M2/1	*	*	*M2/1	*	*	*M2/1	*	*
*met(C|)	*	*	*met(C|)	*	*	*met(C|)	*	*	*met(C|)	*	*
*xywh-#308:7497,2976,6443,1062	*	*	*	*	*	*xywh-#104:7494,2071,6564,983	*	*	*	*	*
2.C/	A-	.	2.e\	A-	.	2.G/	A-	.	2.e\	A-	.
!	!	!	!LO:TX:t=P:problem:kreska pseudotaktowa	!	!	!LO:TX:t=P:problem:kreska pseudotaktowa	!	!	!LO:TX:t=P:problem:kreska pseudotaktowa	!	!
4BB/	-gn(us)	.	4d\	-gn(us)	.	4G/	-gn(us)	.	4g\	-gn(us)	.
2C/	De-	.	2c\	De-	.	1G	De-	.	2e\	De-	.
1GG/	-i	.	1B\	-i	.	.	.	.	1g\	-i	.
=25-	=25-	=25-	=25-	=25-	=25-	=25-	=25-	=25-	=25-	=25-	=25-
!	!	!	!	!	!	!	!	!	!LO:TX:a:t=Vide 1	!	!
.	.	.	.	.	.	2G/	-i	.	.	.	.
!	!	!	!	!	!	!	!	!	!LO:TX:t=P:problem:kreska pseudotaktowa	!	!
!LO:TX:t=P:problem:kreska pseudotaktowa	!	!	!LO:TX:t=P:problem:kreska pseudotaktowa	!	!	!LO:TX:t=P:problem:kreska pseudotaktowa	!	!	!LO:TX:a:t=et.	!	!
2G\	qui	.	2G/	qui	.	2B\	qui	.	2d\	Qui	.
2G\	tol-	.	2B\	tol-	.	2d\	tol-	.	2d\	tol-	.
4G\	-lis	.	4B\	-lis	.	4d\	-lis	.	4d\	-lis	.
!	!	!	!LO:TX:t=P:problem:kreska pseudotaktowa	!	!	!LO:TX:t=P:problem:kreska pseudotaktowa	!	!	!LO:TX:t=P:problem:kreska pseudotaktowa	!	!
4E\	pec-	.	4c\	pec-	.	4e\	pec-	.	4g\	pec-	.
=26-	=26-	=26-	=26-	=26-	=26-	=26-	=26-	=26-	=26-	=26-	=26-
2F\	-ca-	.	2A/	-ca-	.	2c\	-ca-	.	2a,\	-ca-	.
4F\	-ta	.	4A/	-ta	.	4c\	-ta	.	4a\	-ta	.
!LO:TX:t=P:problem:kreska pseudotaktowa	!	!	!	!	!	!LO:TX:t=P:problem:kreska pseudotaktowa	!	!	!LO:TX:t=P:problem:kreska pseudotaktowa	!	!
4D\	pec-	.	4B\	pec-	.	4d\	pec-	.	4f\	.	.
*	*	*	*custos:G	*	*	*	*	*	*	*	*
!	!	!	!LO:LB:g=original	!	!	!	!	!	!	!	!
*	*	*	*xywh-#208:7771,3052,6277,954	*	*	*	*	*	*	*	*
1E	-ca-	.	2G/	-ca-	.	2B\	ca-	.	2g\	.	.
.	.	.	4G/	-ta	.	4B\	-ta	.	4g\	.	.
!	!	!	!LO:TX:t=P:problem:kreska pseudotaktowa	!	!	!LO:TX:t=P:problem:kreska pseudotaktowa	!	!	!LO:TX:t=P:problem:kreska pseudotaktowa	!	!
.	.	.	4G/	pec-	.	4B\	pec-	.	4e\	.	.
=27-	=27-	=27-	=27-	=27-	=27-	=27-	=27-	=27-	=27-	=27-	=27-
1C	-ta	.	2A/	-ca-	.	1.c	-ca-	.	2e\	.	.
!	!	!	!LO:TX:t=P:problem:kreska pseudotaktowa	!	!	!	!	!	!	!	!
.	.	.	2G/	-ta	.	.	.	.	1a;;	mun-	.
0D	mun-	.	4F#X/	mun-	.	.	.	.	.	.	.
.	.	.	8E/L	.	.	.	.	.	.	.	.
.	.	.	8F#/J	.	.	.	.	.	.	.	.
.	.	.	1G/	.	.	2B\	-ta	.	4g\	di.	.
.	.	.	.	.	.	.	.	.	8f\L	.	.
!	!	!	!	!	!	!	!	!	!LO:TX:t=P:problem:kreska pseudotaktowa	!	!
.	.	.	.	.	.	.	.	.	8e\J	.	.
=28-	=28-	=28-	=28-	=28-	=28-	=28-	=28-	=28-	=28-	=28-	=28-
.	.	.	.	.	.	1A	mun-	.	2d\	.	.
.	.	.	2F#X/	.	.	.	.	.	2a\,	.	.
=29-	=29-	=29-	=29-	=29-	=29-	=29-	=29-	=29-	=29-	=29-	=29-
*M3/1	*	*	*M3/1	*	*	*M3/1	*	*	*M3/1	*	*
!	!	!	!	!	!	!	!	!	!LO:TX:a:t=vide 2	!	!
1GG,	-di	.	1G,	di	.	1B,	-di	.	1g	A-	.
1G	A-	.	1d	A-	.	1B	A-	.	1g	-gn(us)	.
!LO:TX:t=P:problem:kreska pseudotaktowa	!	!	!LO:TX:t=P:problem:kreska pseudotaktowa	!	!	!LO:TX:t=P:problem:kreska pseudotaktowa	!	!	!	!	!
1G	-gn(us)	.	1B	-gn(us)	.	1B	-gn(us)	.	1g	De-	.
=30-	=30-	=30-	=30-	=30-	=30-	=30-	=30-	=30-	=30-	=30-	=30-
0G	De-	.	0G	De-	.	0B	De-	.	0g	-i	.
!	!	!	!	!	!	!LO:TX:t=P:problem:kreska pseudotaktowa	!	!	!	!	!
1G	-i	.	1B	i	.	1B	i	.	1g	qu-	.
=31-	=31-	=31-	=31-	=31-	=31-	=31-	=31-	=31-	=31-	=31-	=31-
0G	q(ui)	.	(0d	qui	.	0B	qui	.	0g	-i	.
!LO:TX:t=P:problem:kreska pseudotaktowa	!	!	!	!	!	!	!	!	!	!	!
1C	tol-	.	1e	tol-	.	1c	tol-	.	1g	tol-	.
=32-	=32-	=32-	=32-	=32-	=32-	=32-	=32-	=32-	=32-	=32-	=32-
!LO:TX:t=P:problem:kreska pseudotaktowa	!	!	!LO:TX:t=P:problem:kreska pseudotaktowa	!	!	!LO:TX:t=P:problem:kreska pseudotaktowa	!	!	!LO:TX:t=P:problem:kreska pseudotaktowa	!	!
0.G	-lis	.	0.d)	-lis	.	0.B	-lis	.	0.g	-lis	.
=33-	=33-	=33-	=33-	=33-	=33-	=33-	=33-	=33-	=33-	=33-	=33-
1G	qui	.	1d	qui	.	1B	qui	.	1g	q(ui)	.
1G	tol-	.	1d	tol-	.	1B	tol-	.	1g	tol-	.
!LO:TX:t=P:problem:kreska pseudotaktowa	!	!	!	!	!	!	!	!	!LO:TX:t=P:problem:kreska pseudotaktowa	!	!
1A	-lis	.	1c	-lis	.	1G	-lis	.	1g	-lis	.
*custos:G	*	*	*	*	*	*custos:B	*	*	*custos:g	*	*
=34-	=34-	=34-	=34-	=34-	=34-	=34-	=34-	=34-	=34-	=34-	=34-
!LO:LB:g=original	!	!	!	!	!	!LO:LB:g=original	!	!	!LO:LB:g=original	!	!
*xywh-#308:7511,3746,6552,1539	*	*	*	*	*	*xywh-#104:7472,2906,6721,856	*	*	*xywh-#4:7585,3009,6484,872	*	*
0G	pec-	.	0B	pec-	.	0B	pec-	.	0g	pec-	.
!	!	!	!LO:TX:t=P:problem:kreska pseudotaktowa	!	!	!	!	!	!	!	!
1BB	-ca-	.	1d	-ca-	.	1B	-ca-	.	1g	-ca-	.
=35-	=35-	=35-	=35-	=35-	=35-	=35-	=35-	=35-	=35-	=35-	=35-
0C	-ta	.	0c	-ta	.	0A	-ta	.	0g	-ta	.
!	!	!	!	!	!	!LO:TX:t=P:problem:kreska pseudotaktowa	!	!	!LO:SIC:v:s=1f#	!	!
1D	mun-	.	1A	mun-	.	1A	mun-	.	1f	mun-	.
=36-	=36-	=36-	=36-	=36-	=36-	=36-	=36-	=36-	=36-	=36-	=36-
!LO:TX:t=P:problem:kreska pseudotaktowa	!	!	!LO:TX:t=P:problem:kreska pseudotaktowa	!	!	!LO:TX:t=P:problem:kreska pseudotaktowa	!	!	!LO:TX:t=P:problem:kreska pseudotaktowa	!	!
0.GG	-di	.	0.B	-di	.	0.G	-di	.	0.g	-di	.
=37-	=37-	=37-	=37-	=37-	=37-	=37-	=37-	=37-	=37-	=37-	=37-
0G	Do-	.	0B	Do-	.	0d	do-	.	0g	Do-	.
1F	-na	.	1d	-na	.	1d	-na	.	1a	-na	.
=38-	=38-	=38-	=38-	=38-	=38-	=38-	=38-	=38-	=38-	=38-	=38-
0G	no-	.	0B	no-	.	0d	no-	.	0g	no-	.
!LO:TX:t=P:problem:kreska pseudotaktowa	!	!	!	!	!	!LO:TX:t=P:problem:kreska pseudotaktowa	!	!	!	!	!
1C	-bis	.	1G	-bis	.	1c	-bis	.	1e	-bis	.
*	*	*	*custos:B	*	*	*	*	*	*	*	*
=39-	=39-	=39-	=39-	=39-	=39-	=39-	=39-	=39-	=39-	=39-	=39-
!	!	!	!LO:LB:g=original	!	!	!	!	!	!	!	!
*	*	*	*xywh-#208:7758,3877,6380,1029	*	*	*	*	*	*	*	*
0GG	pa-	.	0B	Do-	.	0d	pa-	.	0g	pa-	.
!	!	!	!	!	!	!LO:TX:t=P:problem:kreska pseudotaktowa	!	!	!	!	!
1D	-ce(m)	.	1A	-na	.	1d	-cem	.	1f#Xi	-cem	.
=40-	=40-	=40-	=40-	=40-	=40-	=40-	=40-	=40-	=40-	=40-	=40-
*	*ij	*	*	*	*	*	*ij	*	*	*ij	*
!	!	!	!LO:TX:t=P:problem:kreska pseudotaktowa	!	!	!	!	!	!	!	!
1.AA	Do-	.	0.c	no-	.	1.e	do-	.	1.a	Do-	.
2AA/	-na	.	.	.	.	2e\	-na	.	2a\	-na	.
!	!	!	!	!	!	!LO:TX:t=P:problem:kreska pseudotaktowa	!	!	!	!	!
1BB	no-	.	.	.	.	1d	no-	.	1g	no-	.
=41-	=41-	=41-	=41-	=41-	=41-	=41-	=41-	=41-	=41-	=41-	=41-
*col	*	*	*	*	*	*col	*	*	*	*	*
1C	bis	.	1B	-bis	.	1c	-bis	.	0g	-bis	.
*	*	*	*lig	*	*	*	*	*	*	*	*
0D	pa-	.	1A	pa-	.	0A	pa-	.	.	.	.
*Xcol	*	*	*	*	*	*Xcol	*	*	*	*	*
.	.	.	1d	.	.	.	.	.	1f#yX	pa-	.
*	*	*	*Xlig	*	*	*	*	*	*	*	*
=42-	=42-	=42-	=42-	=42-	=42-	=42-	=42-	=42-	=42-	=42-	=42-
*M2/1	*	*	*M2/1	*	*	*M2/1	*	*	*M2/1	*	*
*met(C|)	*	*	*met(C|)	*	*	*met(C|)	*	*	*met(C|)	*	*
!	!	!	!LO:TX:t=P:problem:kreska pseudotaktowa	!	!	!LO:TX:t=P:problem:kreska pseudotaktowa	!	!	!	!	!
1GG	-ce(m)	.	1d	-cem	.	1B	-cem	.	1g	-cem	.
*	*Xij	*	*	*	*	*	*Xij	*	*	*Xij	*
4G\	Do-	.	4G/	Do-	.	4d\	do-	.	4d\	Do-	.
!LO:SIC:v:s=4F#\	!	!	!	!	!	!	!	!	!	!	!
4F\	.	.	4A/	.	.	4d\	-na	.	4d\	-na	.
4G\	-na	.	4B\	-na	.	4d\	no-	.	4d\	no-	.
!LO:TX:t=P:problem:kreska pseudotaktowa	!	!	!LO:TX:t=P:problem:kreska pseudotaktowa	!	!	!LO:TX:t=P:problem:kreska pseudotaktowa	!	!	!LO:TX:t=P:problem:kreska pseudotaktowa	!	!
4C/	.	.	4c\	.	.	4c\	-bis	.	4g\	.	.
=43-	=43-	=43-	=43-	=43-	=43-	=43-	=43-	=43-	=43-	=43-	=43-
(4G\	no-	.	(4B\	no-	.	2d\	pa-	.	(4g\	-bis	.
4D/)	.	.	4A\)	.	.	.	.	.	4f#yX\)	.	.
!	!	!	!LO:TX:t=P:problem:kreska pseudotaktowa	!	!	!LO:TX:t=P:problem:kreska pseudotaktowa	!	!	!LO:TX:t=P:problem:kreska pseudotaktowa	!	!
2GG/	-bis	.	2B\	-bis	.	2d\	-ce(m)	.	2g\	pa-	.
*	*	*	*	*	*	*	*ij	*	*	*	*
!	!	!LO:DY:a:Bi:t=p.	!	!	!	!	!	!	!	!	!LO:DY:a:Bi:t=p.
4G\	pa-	p	4G/	pa-	.	4d\	do-	.	4d\	-ce(m)	p
*	*	*	*	*	*	*	*	*	*	*ij	*
!LO:SIC:v:s=4F#\	!	!	!	!	!LO:DY:b	!	!	!	!	!	!
4F\	-ce(m)	.	4A/	-cem	p	4d\	-na	.	4d\	Do-	.
*	*ij	*	*	*ij	*	*	*	*	*	*	*
!	!	!	!	!	!	!	!	!LO:DY:a:Bi:t=p.	!	!	!
4G\	Do-	.	4B\	Do-	.	4d\	no-	p	4d\	-na	.
!LO:TX:t=P:problem:kreska pseudotaktowa	!	!	!LO:TX:t=P:problem:kreska pseudotaktowa	!	!	!	!	!	!	!	!
4C/	-na	.	4c\	-na	.	4c\	-bis	.	4g\	no-	.
=44-	=44-	=44-	=44-	=44-	=44-	=44-	=44-	=44-	=44-	=44-	=44-
4G\	no-	.	(4B\	no-	.	2d\	pa-	.	4g\	-bis	.
4D/	.	.	4A\)	.	.	.	.	.	4f#yX\	pa-	.
!	!	!	!	!	!	!	!	!	!LO:TX:t=P:problem:kreska pseudotaktowa	!	!
!	!	!	!	!	!	!LO:TX:t=P:problem:kreska pseudotaktowa	!	!	!	!	!
!LO:TX:t=P:problem:kreska pseudotaktowa	!	!	!LO:TX:t=P:problem:kreska pseudotaktowa	!	!	!	!	!	!	!	!
2GG/	-bis	.	2B\	-bis	.	2d\	-ce(m)	.	2g\	-ce(m)	.
*	*	*	*	*	*	*	*	*	*custos:g	*	*
*	*	*	*	*	*	*custos:e	*	*	*custos:e	*	*
!	!	!LO:DY:a:Bi:t=F.	!	!	!LO:DY:a:Bi:t=F.	!LO:LB:g=original	!	!	!LO:LB:g=original	!	!
*	*	*	*	*	*	*xywh-#104:7472,3643,6505,1140	*	*	*xywh-#4:7573,3719,6423,1202	*	*
4C/	Do-	f	4c\	Do-	f	4e\	do-	.	4g\	Do-	.
*	*	*	*	*	*	*	*	*	*	*	*
4C/	-na	.	4c\	-na	.	4e\	-na	.	4e\	-na	.
!	!	!	!	!	!	!	!	!LO:DY:b:Bi:t=F.	!	!	!LO:DY:b:Bi:t=F.
4GG/	no-	.	4B\	no-	.	4d\	no-	f	4g\	no-	f
!	!	!	!	!	!	!LO:TX:t=P:problem:kreska pseudotaktowa	!	!	!	!	!
4GG/	-bis	.	4B\	-bis	.	4d\	-bis	.	4g\	-bis	.
=45-	=45-	=45-	=45-	=45-	=45-	=45-	=45-	=45-	=45-	=45-	=45-
!	!	!	!LO:TX:t=P:problem:kreska pseudotaktowa	!	!	!	!	!	!	!	!
1D	pa-	.	1A	pa-	.	1d	pa-	.	(2g\	pa-	.
.	.	.	.	.	.	.	.	.	2f#X\)	.	.
1GGl;	-ce(m)	.	1Bl	-cem	.	1dl	-ce(m)	.	1gl;<	-ce(m)	.
*	*Xij	*	*	*Xij	*	*	*Xij	*	*	*Xij	*
!	!	!	!	!	!	!LO:TX:b:t=Laus Deo.	!	!	!	!	!
==	==	==	==	==	==	==	==	==	==	==	==
*-	*-	*-	*-	*-	*-	*-	*-	*-	*-	*-	*-
!!!system-decoration: [(s1,s2,s3,s4)]
!!!RDF**kern: i = editorial accidental
!!!RDF**kern: l = terminal long
!!!RDF**kern: > = above
!!!RDF**kern: < = below
!!!ENC: Katarzyna Serwa
!!!END: 2022-01-08
!!!ENC: Filip Voros
!!!END: 2022-01-07
!!!ENC-iiif: Natalia Wrzos
!!!END-iiif: 2022-09-01
